src/main/resources/icons/AppcodeIcons/icons/Plugin.svg

<svg xmlns="http://www.w3.org/2000/svg" width="16" height="16" viewBox="0 0 16 16"><rect id="frame" width="16" height="16" fill="none"/><path fill="#9AA7B0" fill-opacity=".8" fill-rule="evenodd" d="M13 5h2v8H1V5h2V3h4v2h2V3h4v2z"/></svg>

<svg xmlns="http://www.w3.org/2000/svg" width="16" height="16" viewBox="0 0 16 16">
  <path fill="#9AA7B0" fill-opacity=".8" fill-rule="evenodd" d="M13,5 L15,5 L15,13 L1,13 L1,5 L3,5 L3,3 L7,3 L7,5 L9,5 L9,3 L13,3 L13,5 Z"/>
</svg>
